X:368
T:Vande Mataram
Z:Jack Campin, http://www.campin.me.uk/
F:Jack Campin's Nine-Note Tunebook
% last edit 03-02-2013
C:Jadunath Bhattacharya
S:http://www.flutetunes.com
M:4/4
L:1/8
Q:1/4=100
K:C
        C2   D2-        DF`GF | G8                  |\
        F2   G2-        GB`cB | c8                  |
        cd (3c/_B/A/ B- BA G2 | GA (3G/F/E/ F- FE D2|\
        DD```GF         E2 DE |(DC-) C6             |
        C2   DF         GF G2-| GG  _BA       (AG3) |\
        F2   G2-        GB`cB | c8                  |
        F2   G2         B2 B2 | BB```cB        c3  B|[M:2/4]  c4 |
[M:4/4] B2   BB         cB c2 | Bc```dc       _BA`BA|[M:2/4](AG3)|
[M:4/4] DD   FF        (E C3) | DD```A_B       AG2 A|[M:2/4]  G4 |
[M:4/4] FG   B2         BB B2-| BB```cB        c4   |\
        F2   G2-        GB`cB | c8                  |\
        F2   G2-        GB`cB | c8                 |]


% == Caucasian songs ========================================================

